X:477
T: KOMM LIEBCHEN KOMM AUFS LAND
N: F0905
O: Europa, Mitteleuropa, Deutschland
R: Liebes - Lied
M: 6/8
L: 1/8
K: F
c3 | A2FG2E | F3z2
F | d2dd2d | c3F2
F | d2dfed | c2F
B3 | AcFEFG | F2z

